X: 1
T:Large One's Night Out
M:C|
L:1/8
Q:80
C:Michael J. Evans '87
S:Hornpipe
K:HP
|: {gcecG}c{g}c/2e/2{AGAG}A{d}c/2e/2|
{g}f/2A/2{g}d/2f/2{ag}ag/2a/2|
e/2a/2{g}a/2g/2a/2e/2{g}d/2e/2|  !
{g}c/2d/2{c}d/2c/2{g}B/2c/2{g}d/2B/2|
{gcecG}c{g}c/2e/2{AGAG}A{d}c/2e/2|
{g}f/2A/2{g}d/2f/2{ag}ag/2a/2|  !
e/2a/2{g}a/2e/2a/2e/2{g}c/2e/2|
{g}B/2d/2{g}c/2B/2{G}A2:| |:
{g}c/2a/2{g}a/2c/2{g}A/2{d}c/2{g}e/2a/2|  !
f/2a/2{g}a/2d/2{g}A/2d/2{g}f/2d/2|
{g}e/2a/2{g}a/2d/2a/2{g}a/2c/2a/2|
B/2g/2{f}g/2{a}f/2g/2{a}B/2c/2d/2|  !
{g}c/2a/2{g}a/2c/2{g}A/2{d}c/2{g}e/2a/2|
f/2a/2{g}a/2d/2{g}A/2d/2{g}f/2d/2|
{g}e/2a/2{g}a/2e/2a/2e/2{g}c/2e/2|  !
{g}B/2d/2{g}c/2B/2{G}A2:| |:
{g}e/2c/2{gcecG}c{g}c/2e/2{g}A/2e/2|
{g}f/2d/2{gdedc}d{g}d/2a/2{g}a/2d/2|  !
{g}e/2a/2{g}a/2d/2{g}c/2a/2{g}a/2c/2|
{g}B/2g/2{f}g/2{a}f/2g/2{a}B/2c/2d/2|
{g}e/2c/2{gcecG}c{g}c/2e/2{g}A/2e/2|  !
{g}f/2d/2{gdedc}d{g}d/2a/2{g}a/2d/2|
{g}e/2a/2{g}a/2e/2a/2e/2{g}c/2e/2|
{g}B/2d/2{g}c/2B/2{G}A2:| |:  !
{g}e/2a/2{g}a/2d/2{g}c/2a/2{g}a/2c/2|
{g}d/2a/2{g}a/2f/2a/2d/2{g}f/2a/2|
e/2a/2{g}a/2d/2{g}c/2a/2{g}a/2c/2|  !
{g}B/2g/2{f}g/2{a}f/2g/2{a}B/2c/2d/2|1
{g}e/2a/2{g}a/2d/2{g}c/2a/2{g}a/2c/2|
{g}d/2a/2{g}a/2f/2a/2d/2{g}f/2a/2|  !
e/2a/2{g}a/2e/2a/2e/2{g}c/2e/2|
{g}B/2d/2{g}c/2B/2{G}A2:|2
{g}e/2a/2{g}a/2d/2a/2{g}a/2c/2a/2|  !
f/2a/2{g}a/2e/2a/2{g}a/2d/2a/2|
e/2a/2{g}a/2e/2a/2e/2{g}c/2e/2|
{g}B/2d/2{g}c/2B/2{G}A2|]  !
